X: 74
T:On the Deep
M:2/4
L:1/8
Q:240
S:Michael Raven (Hynde Horn)
R:March
A:Wales
Z:brian_martin12345@yahoo.com
K:Em
B,|E>F GG|FA GF|G2FE|^D3B,|E>F GG|FA GA|B3B|B>A GB|
cB2B|AG FG|AF2F|EG FE|^DB,2B|eB AG|Ac BA|GE F>E|E3||
